webroot/img/logo_sports_colour.svg

<svg width="92" height="32" viewBox="0 0 92 32" fill="none" xmlns="http://www.w3.org/2000/svg">
<g clip-path="url(#clip0)">
<path fill-rule="evenodd" clip-rule="evenodd" d="M0.586761 18.5424C0.586761 12.5381 5.45416 7.67075 11.4584 7.67075C17.4627 7.67075 22.3301 12.5381 22.3301 18.5424C22.3301 24.5467 17.4627 29.4141 11.4584 29.4141C5.45416 29.4141 0.586761 24.5467 0.586761 18.5424Z" fill="#00ADEE"/>
<path fill-rule="evenodd" clip-rule="evenodd" d="M15.5384 28.6216L11.4682 26.1313V22.3598L14.8664 19.8909L18.832 20.781L19.6221 25.7196L15.5384 28.6216Z" fill="white"/>
<path fill-rule="evenodd" clip-rule="evenodd" d="M22.2598 17.3228L18.8313 20.7812L14.8657 19.8911L13.5677 15.896L16.0186 12.1245L20.8402 13.0501L22.2598 17.3228Z" fill="white"/>
<path fill-rule="evenodd" clip-rule="evenodd" d="M7.76427 28.771L11.4463 26.132V22.3605L8.04785 19.8915L4.08224 20.7816L3.48326 25.9319L7.76427 28.771Z" fill="white"/>
<path fill-rule="evenodd" clip-rule="evenodd" d="M0.660843 17.2672L4.08286 20.7812L8.04846 19.8911L9.34668 15.896L6.89581 12.1245L2.08655 13.0279L0.660843 17.2672Z" fill="white"/>
<path fill-rule="evenodd" clip-rule="evenodd" d="M9.34625 7.87669L6.89584 12.125L9.34671 15.8965H13.5687L16.0195 12.125L13.5687 7.87669H9.34625Z" fill="white"/>
<path d="M1.54897 12.7961C0.779465 14.1183 0.266998 15.6075 0.0802307 17.195C0.0795441 17.2 0.0790863 17.205 0.0783997 17.2101C0.0275879 17.6472 0.000579834 18.0917 0.000579834 18.5424C0.000579834 21.5183 1.14133 24.2326 3.00809 26.2717C3.03784 26.3134 3.07286 26.3514 3.11269 26.3841C4.3253 27.6739 5.83226 28.6839 7.52576 29.3047C7.5562 29.3184 7.58778 29.3298 7.62006 29.3381C8.82054 29.7661 10.1124 30 11.4582 30C12.9592 30 14.3936 29.7093 15.7085 29.1822C15.7442 29.1714 15.7785 29.1573 15.8117 29.1399C17.4286 28.4734 18.8604 27.4471 20.0076 26.1614C20.0451 26.1282 20.0786 26.0909 20.1067 26.0497C21.8556 24.0374 22.9158 21.4114 22.9158 18.5424C22.9158 18.1123 22.8911 17.6878 22.8446 17.2698C22.8441 17.2646 22.8434 17.2595 22.8428 17.2545C22.7576 16.496 22.5981 15.7599 22.3717 15.0533L28.5266 8.89847C28.7555 8.66959 28.7555 8.29857 28.5266 8.06969C28.4121 7.95525 28.2622 7.89803 28.1123 7.89803C27.9624 7.89803 27.8125 7.95525 27.698 8.06969L21.9124 13.8551C21.7512 13.4974 21.5722 13.149 21.3765 12.8119C21.3587 12.7716 21.336 12.7338 21.3097 12.6988C19.8572 10.2596 17.5254 8.40294 14.7545 7.56889L18.8822 3.44147C19.1108 3.21259 19.1108 2.84157 18.8822 2.61269C18.7677 2.49825 18.6176 2.44102 18.4677 2.44102C18.3178 2.44102 18.1678 2.49825 18.0534 2.61269L13.4137 7.25258C12.7779 7.14272 12.1247 7.08481 11.4582 7.08481C7.28452 7.08481 3.62538 9.32854 1.62221 12.6727C1.59291 12.7107 1.56819 12.7519 1.54897 12.7961ZM6.6187 12.773L8.70335 15.981L7.59488 19.3925L4.96022 19.9841L4.27472 20.1379L1.27934 17.062C1.4613 15.805 1.87146 14.6207 2.46655 13.5528L6.6187 12.773ZM14.2128 15.981L16.2965 12.7746L20.4615 13.5738C21.0582 14.6507 21.4669 15.8455 21.6441 17.1135L18.6448 20.1389L15.3212 19.3925L14.5826 17.119L14.2128 15.981ZM19.9868 24.2862L19.4583 20.9827L21.7421 18.679C21.7148 20.7525 21.0719 22.6801 19.9868 24.2862ZM13.1434 16.482L14.1784 19.6674L11.4689 21.6357L8.75943 19.6671L9.79443 16.482H13.1434ZM1.1736 18.633L3.46928 20.9905L3.06348 24.4796C1.88931 22.8241 1.1926 20.8081 1.1736 18.633ZM4.09871 25.7204L4.61736 21.262L5.87804 20.9791L7.91898 20.5209L10.8615 22.6586V25.8307L7.6814 28.1099C6.32161 27.5711 5.10373 26.7503 4.09871 25.7204ZM9.07918 28.5498L11.4829 26.827L14.1626 28.4665C13.3004 28.7018 12.3938 28.8281 11.4582 28.8281C10.6395 28.8281 9.84296 28.7315 9.07918 28.5498ZM15.5847 27.963L12.0549 25.8032V22.6586L14.1304 21.1507L14.9971 20.5209L18.3168 21.2661L18.9989 25.5295C18.0456 26.5576 16.8854 27.391 15.5847 27.963ZM19.5553 12.2067L16.3938 11.5997L14.7836 8.80875C16.6858 9.46037 18.3384 10.6549 19.5553 12.2067ZM13.1974 8.40454L15.3331 12.1065L13.2512 15.3101H9.66512L7.58321 12.1065L9.71844 8.40477C10.2842 8.30795 10.8654 8.25691 11.4582 8.25691C12.051 8.25668 12.6319 8.30772 13.1974 8.40454ZM8.13252 8.80875L6.52325 11.5986L3.37384 12.1902C4.58943 10.6464 6.23692 9.45808 8.13252 8.80875Z" fill="#334382"/>
<path d="M21.9303 8.89882L29.8283 1.00057C30.0572 0.771687 30.0572 0.400669 29.8283 0.171787C29.7139 0.0575752 29.564 0.000354767 29.4141 0.000354767C29.2641 0.000354767 29.1142 0.0575752 28.9998 0.172016L21.1015 8.07004C20.8729 8.29892 20.8729 8.66994 21.1015 8.89882C21.3304 9.12748 21.7014 9.12748 21.9303 8.89882Z" fill="#334382"/>
<path d="M20.2646 1.81592C20.4187 1.81592 20.5697 1.7532 20.6787 1.64426C20.7876 1.53531 20.8506 1.38425 20.8506 1.22952C20.8506 1.07549 20.7879 0.924881 20.6787 0.815704C20.5697 0.70607 20.4187 0.643585 20.2646 0.643585C20.1104 0.643585 19.9593 0.70607 19.8504 0.815704C19.7414 0.924652 19.6787 1.07549 19.6787 1.22952C19.6787 1.38425 19.7412 1.53531 19.8504 1.64426C19.9593 1.7532 20.1104 1.81592 20.2646 1.81592Z" fill="#334382"/>
</g>
<path d="M38.88 26.432C37.872 26.432 36.984 26.256 36.216 25.904C35.448 25.552 34.856 25.064 34.44 24.44C34.024 23.8 33.816 23.064 33.816 22.232C33.816 21.528 33.96 20.888 34.248 20.312C34.552 19.736 34.952 19.28 35.448 18.944C35.96 18.608 36.52 18.44 37.128 18.44C37.688 18.44 38.16 18.584 38.544 18.872C38.928 19.144 39.168 19.528 39.264 20.024C38.432 20.024 37.768 20.248 37.272 20.696C36.776 21.128 36.528 21.72 36.528 22.472C36.528 23.16 36.736 23.712 37.152 24.128C37.568 24.544 38.12 24.752 38.808 24.752C39.656 24.752 40.352 24.472 40.896 23.912C41.456 23.336 41.736 22.616 41.736 21.752C41.736 21 41.528 20.288 41.112 19.616C40.696 18.944 40.072 18.128 39.24 17.168C38.376 16.176 37.72 15.328 37.272 14.624C36.84 13.904 36.624 13.12 36.624 12.272C36.624 11.44 36.856 10.696 37.32 10.04C37.784 9.368 38.424 8.84 39.24 8.456C40.056 8.072 40.976 7.88 42 7.88C43.296 7.88 44.328 8.184 45.096 8.792C45.88 9.4 46.272 10.216 46.272 11.24C46.272 11.912 46.104 12.456 45.768 12.872C45.432 13.288 44.992 13.496 44.448 13.496C43.84 13.496 43.352 13.248 42.984 12.752C43.288 12.528 43.528 12.232 43.704 11.864C43.88 11.496 43.968 11.112 43.968 10.712C43.968 10.2 43.816 9.792 43.512 9.488C43.208 9.184 42.792 9.032 42.264 9.032C41.624 9.032 41.096 9.264 40.68 9.728C40.28 10.176 40.08 10.752 40.08 11.456C40.08 12.096 40.264 12.696 40.632 13.256C41 13.8 41.576 14.504 42.36 15.368C43 16.056 43.512 16.648 43.896 17.144C44.296 17.64 44.632 18.216 44.904 18.872C45.192 19.512 45.336 20.208 45.336 20.96C45.336 21.984 45.048 22.912 44.472 23.744C43.912 24.576 43.136 25.232 42.144 25.712C41.168 26.192 40.08 26.432 38.88 26.432ZM48.5115 13.112H51.9675L51.5835 14.912C52.3835 14.224 53.3195 13.88 54.3915 13.88C55.2875 13.88 55.9995 14.176 56.5275 14.768C57.0555 15.36 57.3195 16.328 57.3195 17.672C57.3195 18.936 57.1355 20.216 56.7675 21.512C56.3995 22.792 55.7755 23.888 54.8955 24.8C54.0155 25.696 52.8555 26.144 51.4155 26.144C50.3915 26.144 49.7115 25.856 49.3755 25.28L48.1275 31.136L44.5035 32L48.5115 13.112ZM50.6715 24.056C51.4395 24.056 52.0715 23.696 52.5675 22.976C53.0795 22.256 53.4475 21.4 53.6715 20.408C53.9115 19.4 54.0315 18.464 54.0315 17.6C54.0315 16.272 53.6315 15.608 52.8315 15.608C52.5435 15.608 52.2475 15.712 51.9435 15.92C51.6555 16.128 51.3995 16.416 51.1755 16.784L49.7595 23.504C49.8875 23.872 50.1915 24.056 50.6715 24.056ZM61.4181 26.096C60.2341 26.096 59.2981 25.792 58.6101 25.184C57.9221 24.576 57.5781 23.616 57.5781 22.304C57.5781 21.216 57.8021 20.008 58.2501 18.68C58.6981 17.352 59.4181 16.208 60.4101 15.248C61.4021 14.272 62.6501 13.784 64.1541 13.784C66.2021 13.784 67.2261 15.064 67.2261 17.624V17.648C67.2741 17.664 67.3621 17.672 67.4901 17.672C68.0181 17.672 68.6261 17.536 69.3141 17.264C70.0021 16.976 70.6261 16.632 71.1861 16.232L71.4021 16.88C70.9381 17.376 70.3301 17.8 69.5781 18.152C68.8421 18.488 68.0341 18.728 67.1541 18.872C67.0261 20.328 66.6981 21.6 66.1701 22.688C65.6421 23.776 64.9621 24.616 64.1301 25.208C63.2981 25.8 62.3941 26.096 61.4181 26.096ZM62.3781 23.936C62.7621 23.936 63.1461 23.72 63.5301 23.288C63.9141 22.84 64.2501 22.24 64.5381 21.488C64.8261 20.72 65.0341 19.872 65.1621 18.944C64.7301 18.848 64.5141 18.512 64.5141 17.936C64.5141 17.28 64.7621 16.848 65.2581 16.64C65.2261 16.112 65.1461 15.752 65.0181 15.56C64.8901 15.352 64.6661 15.248 64.3461 15.248C63.8181 15.248 63.3061 15.632 62.8101 16.4C62.3141 17.168 61.9141 18.088 61.6101 19.16C61.3061 20.232 61.1541 21.176 61.1541 21.992C61.1541 22.76 61.2421 23.28 61.4181 23.552C61.5941 23.808 61.9141 23.936 62.3781 23.936ZM70.0929 14H73.5489L73.2369 15.488C73.7809 15.008 74.2689 14.64 74.7009 14.384C75.1489 14.128 75.6289 14 76.1409 14C76.6529 14 77.0529 14.176 77.3409 14.528C77.6449 14.88 77.7969 15.304 77.7969 15.8C77.7969 16.264 77.6449 16.672 77.3409 17.024C77.0369 17.376 76.6129 17.552 76.0689 17.552C75.7169 17.552 75.4769 17.472 75.3489 17.312C75.2369 17.136 75.1489 16.888 75.0849 16.568C75.0369 16.36 74.9889 16.208 74.9409 16.112C74.8929 16.016 74.8049 15.968 74.6769 15.968C74.3409 15.968 74.0529 16.04 73.8129 16.184C73.5889 16.312 73.2929 16.544 72.9249 16.88L71.0049 26H67.5489L70.0929 14ZM79.8604 26.144C79.0924 26.144 78.4684 25.904 77.9884 25.424C77.5244 24.944 77.2924 24.224 77.2924 23.264C77.2924 22.864 77.3564 22.344 77.4844 21.704L78.9244 14.96H78.1324L78.3244 14H79.1164L79.8364 10.688L83.3884 10.208L82.5724 14H84.0124L83.8204 14.96H82.3804L80.8444 22.16C80.7804 22.4 80.7484 22.656 80.7484 22.928C80.7484 23.248 80.8204 23.48 80.9644 23.624C81.1244 23.752 81.3804 23.816 81.7324 23.816C82.1964 23.816 82.6284 23.624 83.0284 23.24C83.4284 22.84 83.7164 22.328 83.8924 21.704H84.9004C84.3084 23.432 83.5484 24.608 82.6204 25.232C81.6924 25.84 80.7724 26.144 79.8604 26.144ZM86.6188 26.144C85.8508 26.144 85.2028 26 84.6748 25.712C84.1468 25.408 83.7548 25.024 83.4988 24.56C83.2428 24.08 83.1148 23.584 83.1148 23.072C83.1148 22.544 83.2428 22.088 83.4988 21.704C83.7388 21.304 84.0348 21.016 84.3868 20.84C85.0108 19.72 85.5548 18.592 86.0188 17.456C86.4828 16.304 86.9228 15.064 87.3388 13.736L90.8908 13.256C90.9708 15.304 91.1068 17.52 91.2988 19.904C91.3788 20.864 91.4188 21.56 91.4188 21.992C91.4188 22.968 91.1708 23.768 90.6748 24.392C90.1788 25.016 89.5628 25.464 88.8268 25.736C88.1068 26.008 87.3708 26.144 86.6188 26.144ZM85.8508 24.248C86.4428 24.248 86.9388 24.072 87.3388 23.72C87.7388 23.368 87.9388 22.8 87.9388 22.016C87.9388 21.536 87.8908 20.864 87.7948 20C87.6348 18.176 87.5308 16.952 87.4828 16.328C87.0988 17.592 86.4508 19.104 85.5388 20.864C85.9068 21.056 86.0908 21.336 86.0908 21.704C86.0908 22.008 85.9868 22.28 85.7788 22.52C85.5868 22.76 85.3388 22.88 85.0348 22.88C84.6988 22.88 84.4828 22.776 84.3868 22.568C84.3868 23.144 84.4988 23.568 84.7228 23.84C84.9628 24.112 85.3388 24.248 85.8508 24.248Z" fill="#5282F0"/>
<defs>
<clipPath id="clip0">
<rect width="30" height="30" fill="white" transform="translate(30 30) rotate(-180)"/>
</clipPath>
</defs>
</svg>

<svg viewBox="0 0 92 32" xmlns="http://www.w3.org/2000/svg">
  <path d="M.59 18.54a10.87 10.87 0 1121.74 0 10.87 10.87 0 01-21.74 0z" fill="#00ADEE"/>
  <path d="M15.54 28.62l-4.07-2.49v-3.77l3.4-2.47 3.96.9.8 4.93-4.1 2.9zM22.26 17.32l-3.43 3.46-3.96-.89-1.3-4 2.45-3.77 4.82.93 1.42 4.27zM7.76 28.77l3.69-2.64v-3.77l-3.4-2.47-3.97.9-.6 5.14 4.28 2.84z" fill="#fff"/>
  <path d="M.66 17.27l3.42 3.51 3.97-.89 1.3-4-2.45-3.77-4.81.9-1.43 4.25z" fill="#fff"/>
  <path d="M9.35 7.88L6.9 12.13l2.45 3.77h4.22l2.45-3.78-2.45-4.24H9.35z" fill="#fff"/>
  <path d="M1.55 12.8a11.38 11.38 0 00-1.47 4.4v.01a11.41 11.41 0 007.54 12.13 11.4 11.4 0 0012.49-3.29 11.41 11.41 0 002.73-8.78v-.02c-.08-.75-.24-1.49-.47-2.2l6.16-6.15a.59.59 0 10-.83-.83l-5.79 5.79a11.44 11.44 0 00-7.16-6.3l4.13-4.12a.59.59 0 00-.83-.83l-4.64 4.64A11.48 11.48 0 001.55 12.8zm5.07-.03l2.08 3.21-1.1 3.41-2.64.6-.69.15-3-3.08c.2-1.25.6-2.44 1.2-3.5l4.15-.79zm7.6 3.21l2.08-3.2 4.16.8c.6 1.07 1 2.27 1.18 3.53l-3 3.03-3.32-.75-.74-2.27-.37-1.14zm5.77 8.3l-.53-3.3 2.28-2.3c-.03 2.07-.67 4-1.75 5.6zm-6.85-7.8l1.04 3.19-2.71 1.97-2.71-1.97 1.03-3.19h3.35zM1.17 18.63L3.47 21l-.4 3.49a10.23 10.23 0 01-1.9-5.85zm2.93 7.09l.52-4.46 1.26-.28 2.04-.46 2.94 2.14v3.17l-3.18 2.28a10.32 10.32 0 01-3.58-2.39zm4.98 2.83l2.4-1.72 2.68 1.64a10.26 10.26 0 01-5.08.08zm6.5-.59l-3.53-2.16v-3.14l2.08-1.5.87-.64 3.32.75.68 4.26a10.33 10.33 0 01-3.42 2.43zm3.98-15.75l-3.17-.61-1.6-2.8c1.9.66 3.55 1.85 4.77 3.4zM13.2 8.4l2.13 3.7-2.08 3.2H9.67l-2.09-3.2 2.14-3.7a10.3 10.3 0 013.48 0zm-5.07.4l-1.6 2.79-3.16.59a10.33 10.33 0 014.76-3.38z" fill="#334382"/>
  <path d="M21.93 8.9l7.9-7.9A.59.59 0 1029 .17l-7.9 7.9a.59.59 0 00.83.83zM20.26 1.82a.59.59 0 00.6-.59.59.59 0 00-.6-.59.59.59 0 000 1.18z" fill="#334382"/>
  <path d="M38.88 26.43c-1 0-1.9-.17-2.66-.53a4.15 4.15 0 01-1.78-1.46 3.96 3.96 0 01-.62-2.2c0-.71.14-1.35.43-1.93.3-.57.7-1.03 1.2-1.37a3 3 0 011.68-.5c.56 0 1.03.14 1.41.43.39.27.63.66.72 1.15-.83 0-1.5.23-1.99.68-.5.43-.74 1.02-.74 1.77 0 .69.2 1.24.62 1.66.42.41.97.62 1.66.62.85 0 1.54-.28 2.09-.84.56-.57.84-1.3.84-2.16a4 4 0 00-.63-2.13 20.1 20.1 0 00-1.87-2.45 22.3 22.3 0 01-1.97-2.55 4.49 4.49 0 01-.65-2.35c0-.83.24-1.57.7-2.23a4.7 4.7 0 011.92-1.58A6.4 6.4 0 0142 7.88c1.3 0 2.33.3 3.1.91.78.61 1.17 1.43 1.17 2.45 0 .67-.17 1.22-.5 1.63-.34.42-.78.63-1.32.63-.61 0-1.1-.25-1.47-.75a2.64 2.64 0 00.98-2.04c0-.51-.14-.92-.45-1.22-.3-.3-.72-.46-1.25-.46-.64 0-1.16.23-1.58.7a2.5 2.5 0 00-.6 1.73c0 .64.18 1.24.55 1.8.37.54.95 1.24 1.73 2.1.64.7 1.15 1.29 1.54 1.78a7 7 0 011 1.73 5.03 5.03 0 01-.43 4.87 5.75 5.75 0 01-2.33 1.97 7.3 7.3 0 01-3.26.72zm9.63-13.32h3.46l-.39 1.8a4.17 4.17 0 012.81-1.03c.9 0 1.6.3 2.14.89.53.59.79 1.56.79 2.9 0 1.27-.18 2.55-.55 3.84a7.73 7.73 0 01-1.87 3.29 4.66 4.66 0 01-3.48 1.34c-1.03 0-1.7-.28-2.04-.86l-1.25 5.86-3.63.86 4.01-18.89zm2.16 10.95c.77 0 1.4-.36 1.9-1.08.51-.72.88-1.58 1.1-2.57.24-1.01.36-1.95.36-2.81 0-1.33-.4-2-1.2-2-.29 0-.58.11-.89.32-.28.2-.54.5-.76.86l-1.42 6.72c.13.37.43.56.91.56zm10.75 2.04c-1.19 0-2.12-.3-2.81-.92-.69-.6-1.03-1.56-1.03-2.88 0-1.08.22-2.3.67-3.62a8.47 8.47 0 012.16-3.43c1-.98 2.24-1.47 3.74-1.47 2.05 0 3.08 1.28 3.08 3.84v.03l.26.02c.53 0 1.14-.13 1.82-.4a9.55 9.55 0 001.88-1.04l.21.65c-.46.5-1.07.92-1.82 1.27a9.5 9.5 0 01-2.43.72 10.87 10.87 0 01-.98 3.82 6.48 6.48 0 01-2.04 2.52c-.83.59-1.74.89-2.71.89zm.96-2.16c.38 0 .77-.22 1.15-.65.38-.45.72-1.05 1-1.8.3-.77.5-1.62.63-2.55-.43-.1-.65-.43-.65-1 0-.66.25-1.1.75-1.3a2.38 2.38 0 00-.24-1.08c-.13-.2-.35-.31-.67-.31-.53 0-1.04.38-1.54 1.15-.5.77-.9 1.69-1.2 2.76-.3 1.07-.46 2.02-.46 2.83 0 .77.1 1.29.27 1.56.17.26.5.39.96.39zM70.09 14h3.46l-.31 1.49a10 10 0 011.46-1.1c.45-.26.93-.39 1.44-.39.51 0 .91.18 1.2.53.3.35.46.77.46 1.27 0 .46-.16.87-.46 1.22-.3.36-.73.53-1.27.53-.35 0-.6-.08-.72-.24-.11-.17-.2-.42-.27-.74a2.2 2.2 0 00-.14-.46c-.05-.1-.14-.14-.26-.14-.34 0-.63.07-.87.21-.22.13-.52.36-.89.7L71 26h-3.45l2.54-12zm9.77 12.14c-.77 0-1.4-.24-1.87-.72-.47-.48-.7-1.2-.7-2.16 0-.4.07-.92.2-1.56l1.43-6.74h-.79l.2-.96h.79l.72-3.31 3.55-.48-.82 3.79h1.44l-.19.96h-1.44l-1.54 7.2c-.06.24-.1.5-.1.77 0 .32.08.55.22.7.16.12.42.19.77.19.47 0 .9-.2 1.3-.58.4-.4.69-.91.86-1.54h1.01c-.6 1.73-1.35 2.9-2.28 3.53-.93.61-1.85.91-2.76.91zm6.76 0c-.77 0-1.42-.14-1.95-.43a3.02 3.02 0 01-1.56-2.64c0-.53.13-.98.39-1.37.24-.4.53-.68.89-.86a31.17 31.17 0 001.63-3.38c.46-1.16.9-2.4 1.32-3.72l3.55-.48c.08 2.04.22 4.26.4 6.64.09.96.13 1.66.13 2.1 0 .97-.25 1.77-.75 2.4a4.17 4.17 0 01-1.84 1.34 6.2 6.2 0 01-2.21.4zm-.77-1.9c.6 0 1.09-.17 1.49-.52.4-.35.6-.92.6-1.7 0-.48-.05-1.16-.15-2.02-.16-1.82-.26-3.05-.3-3.67a27.77 27.77 0 01-1.95 4.53c.37.2.55.48.55.84 0 .3-.1.58-.31.82a.91.91 0 01-.75.36c-.33 0-.55-.1-.64-.31 0 .57.1 1 .33 1.27.24.27.62.4 1.13.4z" fill="#5282F0"/>
</svg>
